assets/components_previews/data-display/light/code_block.svg

<svg width="320" height="232" viewBox="0 0 320 232" fill="none" xmlns="http://www.w3.org/2000/svg">
<g filter="url(#filter0_dd_10060_19253)">
<rect x="52" y="62" width="216" height="108" rx="12" fill="white"/>
<g clip-path="url(#clip0_10060_19253)">
<path fill-rule="evenodd" clip-rule="evenodd" d="M92.7007 105.194C91.259 105 89.4124 105 87.0614 105H86.9386C84.5876 105 82.7411 105 81.2993 105.194C79.822 105.392 78.6498 105.808 77.7288 106.729C76.8078 107.65 76.3924 108.822 76.1938 110.299C76 111.741 76 113.588 76 115.939V116.061C76 118.412 76 120.259 76.1938 121.701C76.3924 123.178 76.8078 124.35 77.7288 125.271C78.6498 126.192 79.822 126.608 81.2993 126.806C82.7411 127 84.5876 127 86.9386 127H87.0614C89.4124 127 91.259 127 92.7007 126.806C94.178 126.608 95.3502 126.192 96.2712 125.271C97.1922 124.35 97.6075 123.178 97.8062 121.701C98 120.259 98 118.412 98 116.061V115.939C98 113.588 98 111.741 97.8062 110.299C97.6075 108.822 97.1922 107.65 96.2712 106.729C95.3502 105.808 94.178 105.392 92.7007 105.194ZM90.592 114.667C90.1431 114.28 90.0929 113.602 90.4798 113.153C90.8667 112.704 91.5443 112.654 91.9934 113.041L93.3096 114.175L93.3494 114.21C93.5909 114.418 93.8475 114.639 94.0351 114.851C94.2472 115.09 94.5122 115.47 94.5122 116C94.5122 116.53 94.2472 116.91 94.0351 117.149C93.8475 117.361 93.5909 117.582 93.3494 117.79L93.3096 117.825L91.9934 118.959C91.5443 119.346 90.8667 119.296 90.4798 118.847C90.0929 118.398 90.1431 117.72 90.592 117.334L91.9084 116.199C91.9958 116.124 92.0714 116.058 92.1379 116C92.0714 115.942 91.9958 115.877 91.9084 115.801L90.592 114.667ZM83.5202 113.153C83.9072 113.602 83.8569 114.28 83.408 114.667L82.0917 115.801C82.0041 115.877 81.9287 115.942 81.8621 116C81.9287 116.058 82.0041 116.124 82.0917 116.199L83.408 117.334C83.8569 117.72 83.9072 118.398 83.5202 118.847C83.1332 119.296 82.4556 119.346 82.0067 118.959L80.6904 117.825L80.6506 117.79C80.4091 117.582 80.1525 117.361 79.9649 117.149C79.7528 116.91 79.4878 116.53 79.4878 116C79.4878 115.47 79.7528 115.09 79.9649 114.851C80.1525 114.639 80.4091 114.418 80.6506 114.21L80.6904 114.175L82.0067 113.041C82.4556 112.654 83.1332 112.704 83.5202 113.153ZM89.0916 113.12C89.279 112.558 88.9751 111.95 88.4128 111.763C87.8506 111.575 87.2428 111.879 87.0554 112.441L84.909 118.88C84.7216 119.443 85.0255 120.05 85.5877 120.238C86.15 120.425 86.7578 120.121 86.9453 119.559L89.0916 113.12Z" fill="#AA99EC"/>
</g>
<rect x="122" y="91" width="109" height="10" rx="5" fill="#EBE4FF"/>
<rect x="122" y="131" width="122" height="10" rx="5" fill="#EBE4FF"/>
<rect x="122" y="111" width="93" height="10" rx="5" fill="#EBE4FF"/>
</g>
<defs>
<filter id="filter0_dd_10060_19253" x="32" y="54" width="256" height="148" filterUnits="userSpaceOnUse" color-interpolation-filters="sRGB">
<feFlood flood-opacity="0" result="BackgroundImageFix"/>
<feColorMatrix in="SourceAlpha" type="matrix" values="0 0 0 0 0 0 0 0 0 0 0 0 0 0 0 0 0 0 127 0" result="hardAlpha"/>
<feOffset dy="12"/>
<feGaussianBlur stdDeviation="10"/>
<feComposite in2="hardAlpha" operator="out"/>
<feColorMatrix type="matrix" values="0 0 0 0 0 0 0 0 0 0 0 0 0 0 0 0 0 0 0.03 0"/>
<feBlend mode="normal" in2="BackgroundImageFix" result="effect1_dropShadow_10060_19253"/>
<feColorMatrix in="SourceAlpha" type="matrix" values="0 0 0 0 0 0 0 0 0 0 0 0 0 0 0 0 0 0 127 0" result="hardAlpha"/>
<feOffset dy="2"/>
<feGaussianBlur stdDeviation="3"/>
<feComposite in2="hardAlpha" operator="out"/>
<feColorMatrix type="matrix" values="0 0 0 0 0 0 0 0 0 0 0 0 0 0 0 0 0 0 0.05 0"/>
<feBlend mode="normal" in2="effect1_dropShadow_10060_19253" result="effect2_dropShadow_10060_19253"/>
<feBlend mode="normal" in="SourceGraphic" in2="effect2_dropShadow_10060_19253" result="shape"/>
</filter>
<clipPath id="clip0_10060_19253">
<rect width="22" height="22" fill="white" transform="translate(76 105)"/>
</clipPath>
</defs>
</svg>

<svg xmlns="http://www.w3.org/2000/svg" width="320" height="232" fill="none" viewBox="0 0 320 232"><g filter="url(#a)"><rect width="216" height="108" x="52" y="62" fill="#fff" rx="12"/><g clip-path="url(#b)"><path fill="#AA99EC" fill-rule="evenodd" d="M92.7 105.194C91.26 105 89.413 105 87.062 105h-.122c-2.351 0-4.198 0-5.64.194-1.477.198-2.65.614-3.57 1.535-.921.921-1.337 2.093-1.535 3.57-.194 1.442-.194 3.289-.194 5.64v.122c0 2.351 0 4.198.194 5.64.198 1.477.614 2.649 1.535 3.57s2.093 1.337 3.57 1.535c1.442.194 3.289.194 5.64.194h.122c2.351 0 4.198 0 5.64-.194 1.477-.198 2.65-.614 3.57-1.535.921-.921 1.337-2.093 1.535-3.57.194-1.442.194-3.289.194-5.64v-.122c0-2.351 0-4.198-.194-5.64-.198-1.477-.614-2.649-1.535-3.57s-2.093-1.337-3.57-1.535m-2.108 9.473a1.074 1.074 0 0 1 1.401-1.626l1.317 1.134.04.035c.24.208.498.429.685.641.212.239.477.619.477 1.149s-.265.91-.477 1.149a7 7 0 0 1-.686.641l-.04.035-1.316 1.134a1.073 1.073 0 0 1-1.401-1.625l1.316-1.135.23-.199-.23-.199zm-7.072-1.514a1.074 1.074 0 0 1-.112 1.514l-1.316 1.134-.23.199.23.199 1.316 1.135a1.072 1.072 0 1 1-1.401 1.625l-1.317-1.134-.04-.035c-.24-.208-.498-.429-.685-.641-.212-.239-.477-.619-.477-1.149s.265-.91.477-1.149c.188-.212.444-.433.686-.641l.04-.035 1.316-1.134a1.073 1.073 0 0 1 1.513.112m5.572-.033a1.073 1.073 0 0 0-2.037-.679l-2.146 6.439a1.074 1.074 0 0 0 2.036.679z" clip-rule="evenodd"/></g><rect width="109" height="10" x="122" y="91" fill="#EBE4FF" rx="5"/><rect width="122" height="10" x="122" y="131" fill="#EBE4FF" rx="5"/><rect width="93" height="10" x="122" y="111" fill="#EBE4FF" rx="5"/></g><defs><clipPath id="b"><path fill="#fff" d="M76 105h22v22H76z"/></clipPath><filter id="a" width="256" height="148" x="32" y="54" color-interpolation-filters="sRGB" filterUnits="userSpaceOnUse"><feFlood flood-opacity="0" result="BackgroundImageFix"/><feColorMatrix in="SourceAlpha" result="hardAlpha" values="0 0 0 0 0 0 0 0 0 0 0 0 0 0 0 0 0 0 127 0"/><feOffset dy="12"/><feGaussianBlur stdDeviation="10"/><feComposite in2="hardAlpha" operator="out"/><feColorMatrix values="0 0 0 0 0 0 0 0 0 0 0 0 0 0 0 0 0 0 0.03 0"/><feBlend in2="BackgroundImageFix" result="effect1_dropShadow_10060_19253"/><feColorMatrix in="SourceAlpha" result="hardAlpha" values="0 0 0 0 0 0 0 0 0 0 0 0 0 0 0 0 0 0 127 0"/><feOffset dy="2"/><feGaussianBlur stdDeviation="3"/><feComposite in2="hardAlpha" operator="out"/><feColorMatrix values="0 0 0 0 0 0 0 0 0 0 0 0 0 0 0 0 0 0 0.05 0"/><feBlend in2="effect1_dropShadow_10060_19253" result="effect2_dropShadow_10060_19253"/><feBlend in="SourceGraphic" in2="effect2_dropShadow_10060_19253" result="shape"/></filter></defs></svg>
